X:4085
T:the One-horned sheep
A:North-West
M:6/8
O:England
R:Jig
Z:Richard Robinson 
%%TUNEURL: http://www.leeds.ac.uk/music/Info/RRTuneBk/gettune/000004cb.html
%%ID:000004cb
K:G
d|:\
g2G GFG| EGG DGG| \
g2G GFG| EAG FED|\
g2G GFG| EGG DGG|
EFG FGA|1 BGG G2d :|2 BGG G2A |:\
Bdd dBG| Bdd d2A|
Bdd dBG| cBc ABc|\
Bdd dBG| Bdd def| gfe dcB| ABG FED :|
